X:3
T:Rose, Rose, Rose / Buttermilk Hill / Black Fox
M:4/4
L:1/16
K:Cmaj
V:1
% oboe
%%MIDI program 68
A8 G8|A8 E8| A4 A4 B4B4|c4d4 B8| e8 d4e4|c4d4 e8| c8 B8|A8 E8||A8 G8|A8 E8| A4 A4 B4B4|c4d4 B8| e8 d4e4|c4d4 e8| c8 B8|A8 E8||
w:Rose, Rose, Rose, Rose Will I ne-ver see thee wed?  I'll mar-ry at thy will, At thy will, Sir.
V:2
% bassoon
%%MIDI program 70
z16|z16|c4 c4 B4 B4| A2A2 A4 E8| G6 E2 G6 E2| G2G2 G4 C6 D2| E4 E4 E4(D2C2)|E4 A4 c8| c2c2 c4 B4 A2G2| A8 A8||c4 c4 B4 B4| A2A2 A4 E8| G6 E2 G6 E2| G2G2 G4 C6 D2| E4 E4 E4(D2C2)|E4 A4 c8| c2c2 c4 B4 A2G2| A8 A8||z16|z16|
w:Here I sit on But-ter-milk Hill Who can blame me, cry-in' my fill And ev'-ry tear would* turn a mill, John-ny has gone for a sol-dier.
V:3
% clarinet
%%MIDI program 71
z16|z16|z16|z8 z4 E4| E4 A4 (G2E2) D4| E4 E8 D4| E4 A4 (G2E2) D4| E12 D4| E4 A4 G4 E2D2| E4 (C2B,2) A,4 A,2B,2|C4 C2C2 (D2C2) B,4| A,12  E4| E4 A4 (G2E2) D4| E4 E8 D4| E4 A4 (G2E2) D4| E12 D4| E4 A4 G4 E2D2| E4 (C2B,2) A,4 A,2B,2|C4 C2C2 (D2C2) B,4| A,12 z4||
w:As we were out* a hun-ting One mor-ning in* the spring Both hounds and hor-ses were run-ning* well Made the hills and the val-*leys ring


